X: 15730
T: Golden Vale, The
R: hornpipe
M: 4/4
K: Dmajor
|:(3ABc|d>cd>A B>GD>G|F>GA>=c B>G G2|g2 g>f e>dc>d|(3efe d>B A>Bc>e|
d2 d>A B>G (3GAG|F>GA>=c B>G (3GAG|A>fe>f g>ec>d|(3efe d>c d2:|
|:(3efg|a>fd>f g2 (3fed|e>fd>B A>GF>G|A>fe>f g2 (3fed|(3Bcd e>f [e2g2] f>g|
a>f (3def g>fe>d|(3efe d>B A>G (3EFG|A>fe>f g2 (3edc|e>d (3ddc d2:|

